X: 967
T: John Dwyer of the Glens
C: anon.
O: Ireland
B: Francis O'Neill: "The Dance Music of Ireland" (1907) no. 967
R: Long dance, set dance
Z: Transcribed by Frank Nordberg - http://www.musicaviva.com
F: http://www.musicaviva.com/abc/tunes/ireland/oneill-1001/oneill-1001-096
7.abc
M: C
L: 1/8
K: D
(de)|f(efg) aba(g|f)gec d(cde)|fde(d cBA)B|c(Bcd) edc(e|dc)A(F G2)GB|A2A2
A2:|
|:(AB)|cBA(B cd)e(f|g2)fg a2(ag)|aba(g f2)ed|f(efg) aba(g|fg)ec d(edc)|A2
A2A2 (de)|
f(efg) aba(g|fg)ec d(edc)|ABA(G A2)AB|c(Bcd) edc(e|dc)A(F G2)GB|A2A2A2:|
W:
W:
W: From Musica Viva - http://www.musicaviva.com
W: the Internet center for free sheet music downloads.


